public/images/flags/gi.svg

<?xml version="1.0" encoding="UTF-8"?>
<svg xmlns="http://www.w3.org/2000/svg" xmlns:xlink="http://www.w3.org/1999/xlink" width="1000" height="500" viewBox="0 0 512 256">
<rect fill="#da000c" width="512" height="256"/>
<rect fill="#fff" width="512" height="171.5"/>
<g stroke="#000">
<g id="castle_half" fill="#da000c" stroke-linecap="square">
<rect fill="#000" stroke="none" width="64" height="43.992859" x="196.57106" y="116.30338"/>
<path d="M229.81889,153.86465H190.75L182.08989,159.56444V165.60411H229.81889"/>
<path d="M213.46875,128.59375C219.09357,128.59375 223.6875,133.28303 223.6875,139.0625V153.84375H231.03125V97.84375H190.75V153.84375H203.25V139.0625C203.24999,133.50878 207.76491,128.59375 213.46875,128.59375z"/>
<rect fill="#000" stroke="none" width="18.523308" height="33.9594" x="204.5282" y="59.961655"/>
<path d="M223,88.65625H206.79108V82.90625H194.90625V88.65625H186.84375V82.90625H182.03125V93.34375H223M186.84375,93.306038H221.81414V97.843752H186.84375z"/>
<path d="M200.71875,47.625V82.90625H206.79108V73.21875C206.79108,69.589448 209.35314,66.619386 212.9375,66.4375C213.05312,66.431633 213.16418,66.4375 213.28125,66.4375C217.02763,66.437497 220.0625,69.472374 220.0625,73.21875V82.90625H225.84375V47.625z"/>
<path d="M198.53125,42.84375V47.625H227.78125V42.84375z"/>
<path d="M194.78125,33.6875V42.84375H229.875V33.6875H224.46875V38.34375H217.9375V33.6875H207.96875V38.34375H201.4375V33.6875z"/>
<path d="M182.08989,159.56444H230"/>
<path d="M261,156.8125H228.5625L218.78125,161.53125V168.5625H261"/>
<path stroke-linecap="butt" d="M218.771,161.51923H262"/>
</g>
<use xlink:href="#castle_half" transform="matrix(-1,0,0,1,512,0)"/>
<g fill="#f8d80e">
<g stroke-linecap="round">
<path stroke-width="0.768" d="m273.297,150.031c-2.65428,0.88339-5.05329,2.369-7.46888,3.75283-3.1004,1.83163-6.10683,3.82731-8.90451,6.09885-0.98462,0.64912-1.92929,1.36065-2.68911,2.27332-1.02583,0.8776-2.06486,2.05478-1.86885,3.51297,0.0518,0.64315,0.87359-0.75523,1.41401-0.82297,0.94235-0.54095,2.0838-0.7154,3.14219-0.4713,1.27117-1.33857,2.90994-2.23563,4.3249-3.40609,3.00467-2.24222,6.23664-4.16769,9.52502-5.96082,1.1481-0.58838,2.30104-1.18568,3.52508-1.60184-0.33328-1.12498-0.66657-2.24997-0.99985-3.37495z"/>
<path d="M260.40041,157.3913V161.3032"/>
<path d="M262.81691,155.68544V159.56821"/>
<path d="M265.23339,154.17984V158.03797"/>
<path d="M267.64986,152.69367V156.67498"/>
<path stroke-width="0.768" d="m238.891,150.156c-0.39583,1.10417-0.79167,2.20833-1.1875,3.3125,5.53699,2.10036,10.8089,4.87874,15.7978,8.06036,1.69067,1.15075,3.46718,2.26632,4.79593,3.84589,0.2927,0.81098-0.51392,1.48903-1.31413,1.24403-0.73225-0.24871-1.45351-0.53169-2.22629-0.004-1.10637,0.50311-2.10598,2.1416-0.42575,2.69112,2.31528,1.55489,6.08158,0.87915,7.19454-1.84522,0.58146-1.40134,0.61878-3.19523-0.50753-4.34456-2.06261-2.36404-4.79728-4.00804-7.4215-5.67182-4.68917-2.82023-9.57283-5.37389-14.7055-7.28801z"/>
<path d="M254.04985,158.03521 253.73747,161.37469"/>
<path d="M256.8319,159.73914 255.96991,163.00882"/>
<path d="M259.80442,162.01152 257.99552,164.54884"/>
<path d="M260.71528,168.18078 258.10512,166.78032"/>
<path d="M261.52792,165.42898 258.53251,165.70943"/>
<path d="M257.66497,169.7646 257.45987,167.13228"/>
<path d="M256.56809,166.75559 254.09509,168.57779"/>
<path d="M244.67669,152.9368V156.05184"/>
<path d="M250.96338,156.24386V159.77805"/>
<path d="M247.82004,154.59318V157.9121"/>
</g>
<path d="M235.78125,227.5625V235.59375H240.8125V231.5625H247.65625V235.59375H253.0625V227.5625zM235.78125,238.625V246.6875H253.0625V238.625H247.65625V242.65625H240.8125V238.625z"/>
<rect width="4.9902272" height="58.115017" x="253.05186" y="193.65144"/>
<rect width="4.9902272" height="50.060368" x="253.05186" y="198.6788"/>
<path stroke-width="1.024" d="M255.54688,179.40625 266.17188,185.59375 255.54688,191.75 244.92188,185.59375zM241.32813,183.375H238.54688V187.8125H241.32813L255.54688,196.0625 269.76563,187.8125H272.54688V183.375H269.76563L255.54688,175.125z"/>
<path stroke-width="1.024" d="m255.344,164.281c-2.41872,0.33922-4.22593,2.73018-4.09375,5.13412,0.009,3.73773-0.0185,7.47634,0.0141,11.2135,0.12824,2.40829,2.23219,4.56615,4.6744,4.58823,1.98493,0.18804,3.97892-0.97232,4.81154-2.77961-0.57292-0.34375-1.14583-0.6875-1.71875-1.03125-0.44378,1.18388-1.72345,1.91762-2.96875,1.78125-1.63507,0.046-2.95917-1.54398-2.8125-3.13412,0.01-3.71344-0.0192-7.42801,0.0146-11.1407,0.0899-1.5151,1.53488-2.75487,3.04795-2.60016,0.6265-0.17973,1.48748,0.67715,1.8747-0.0623,0.5838-0.82944-0.41442-1.47737-0.96875-1.9374-0.61348-0.0841-1.25418-0.008-1.8747-0.0316zm5.78125,3.90625c-0.39638,0.7459-1.21626,1.18923-1.875,1.58041v7.51334c0.66667,0.38542,1.33333,0.77083,2,1.15625-0.008-3.20377,0.0153-6.40813-0.0117-9.61152-0.0315-0.19722-0.008-0.4984-0.11328-0.63848z"/>
</g>
<g fill="#da000c">
<rect fill="#000" stroke="none" width="29.328571" height="53.254513" x="240.80301" y="38.351128"/>
<path d="M238.75,38.375V82.9375H248.0625V69.71875C248.0625,66.669822 250.01501,62.4375 256,62.4375C261.98499,62.4375 263.9375,66.669822 263.9375,69.71875V82.9375H273.25V38.375zM254.5625,43.375H257.4375V58.625H254.5625zM246.3125,46.375H249.21875V57.53125H246.3125zM262.78125,46.375H265.6875V57.53125H262.78125z"/>
<path d="M235.59375,31.96875V38.3125H276.40625V31.96875z"/>
<path d="M231.75,24.59375V31.96875H280.25V24.59375H274.15625V28.65625H267.28125V24.59375H259.4375V28.65625H252.5625V24.59375H244.71875V28.65625H237.84375V24.59375z"/>
<path d="M222.75,97.84375V102.4375H289.25V97.84375z"/>
<path d="M220.03125,82.90625V97.84375H291.96875V82.90625H285.15625V88.65625H276.09375V82.90625H263.9375V88.65625H248.0625V82.90625H235.90625V88.65625H226.84375V82.90625z"/>
<path stroke-linejoin="round" d="M228.6875,102.4375V156.78125H241.53125V136.4375C241.53125,126.85477 247.92755,122.34375 256,122.34375C263.75894,122.34375 270.46875,126.85477 270.46875,136.4375V156.78125H283.3125V102.4375z"/>
</g>
</g>
</svg>

<svg xmlns="http://www.w3.org/2000/svg" xmlns:xlink="http://www.w3.org/1999/xlink" width="1000" height="500" viewBox="0 0 512 256"><path fill="#da000c" d="M0 0h512v256H0z"/><path fill="#fff" d="M0 0h512v171.5H0z"/><g stroke="#000"><g id="a" fill="#da000c" stroke-linecap="square"><path fill="#000" stroke="none" d="M196.571 116.303h64v43.993h-64z"/><path d="M229.819 153.865H190.75l-8.66 5.7v6.04h47.729M213.469 128.594c5.625 0 10.219 4.689 10.219 10.469v14.78h7.343v-56H190.75v56h12.5v-14.78c0-5.554 4.515-10.47 10.219-10.47z"/><path fill="#000" stroke="none" d="M204.528 59.962h18.523v33.959h-18.523z"/><path d="M223 88.656h-16.209v-5.75h-11.885v5.75h-8.062v-5.75h-4.813v10.438H223m-36.156-.038h34.97v4.538h-34.97z"/><path d="M200.719 47.625v35.281h6.072V73.22c0-3.63 2.562-6.6 6.147-6.781.115-.006.226 0 .343 0a6.78 6.78 0 016.781 6.78v9.688h5.782V47.625zM198.531 42.844v4.781h29.25v-4.781zM194.781 33.688v9.156h35.094v-9.157h-5.406v4.657h-6.531v-4.657h-9.97v4.657h-6.53v-4.657zM182.09 159.564H230M261 156.813h-32.438l-9.78 4.718v7.031H261"/><path stroke-linecap="butt" d="M218.771 161.52H262"/></g><use xlink:href="#a" transform="matrix(-1 0 0 1 512 0)"/><g fill="#f8d80e"><g stroke-linecap="round"><path stroke-width=".768" d="M273.297 150.031c-2.654.883-5.053 2.369-7.469 3.753-3.1 1.831-6.107 3.827-8.904 6.099-.985.649-1.93 1.36-2.69 2.273-1.025.878-2.064 2.055-1.868 3.513.051.643.873-.755 1.414-.823a4.39 4.39 0 013.142-.471c1.271-1.339 2.91-2.236 4.325-3.406 3.004-2.243 6.236-4.168 9.525-5.961 1.148-.589 2.3-1.186 3.525-1.602l-1-3.375z"/><path d="M260.4 157.391v3.912M262.817 155.685v3.883M265.233 154.18v3.858M267.65 152.694v3.981"/><path stroke-width=".768" d="M238.891 150.156l-1.188 3.313c5.537 2.1 10.81 4.878 15.798 8.06 1.691 1.15 3.467 2.266 4.796 3.846.293.81-.514 1.489-1.314 1.244-.732-.249-1.453-.532-2.226-.004-1.107.503-2.106 2.141-.426 2.69 2.315 1.556 6.082.88 7.195-1.844.581-1.402.618-3.196-.508-4.345-2.063-2.364-4.797-4.008-7.421-5.672-4.69-2.82-9.573-5.374-14.706-7.288z"/><path d="M254.05 158.035l-.313 3.34M256.832 159.74l-.862 3.269M259.804 162.012l-1.808 2.537M260.715 168.18l-2.61-1.4M261.528 165.429l-2.995.28M257.665 169.765l-.205-2.633M256.568 166.756l-2.473 1.822M244.677 152.937v3.115M250.963 156.244v3.534M247.82 154.593v3.32"/></g><path d="M235.781 227.563v8.03h5.031v-4.03h6.844v4.03h5.406v-8.03zm0 11.062v8.063h17.281v-8.063h-5.406v4.031h-6.844v-4.031z"/><path d="M253.052 193.651h4.99v58.115h-4.99z"/><path d="M253.052 198.679h4.99v50.06h-4.99z"/><path stroke-width="1.024" d="M255.547 179.406l10.625 6.188-10.625 6.156-10.625-6.156zm-14.219 3.969h-2.781v4.438h2.781l14.219 8.25 14.219-8.25h2.78v-4.438h-2.78l-14.22-8.25z"/><path stroke-width="1.024" d="M255.344 164.281c-2.419.34-4.226 2.73-4.094 5.134.01 3.738-.018 7.476.014 11.214.129 2.408 2.233 4.566 4.675 4.588 1.985.188 3.979-.972 4.811-2.78l-1.718-1.031c-.444 1.184-1.724 1.918-2.97 1.781-1.634.046-2.958-1.544-2.812-3.134.01-3.713-.019-7.428.015-11.14.09-1.516 1.535-2.755 3.048-2.6.626-.18 1.487.676 1.875-.063.583-.83-.415-1.477-.97-1.937-.613-.085-1.253-.008-1.874-.032zm5.781 3.906c-.396.746-1.216 1.19-1.875 1.58v7.514l2 1.156c-.008-3.204.016-6.408-.011-9.611-.032-.197-.008-.499-.114-.639z"/></g><g fill="#da000c"><path fill="#000" stroke="none" d="M240.803 38.351h29.329v53.255h-29.329z"/><path d="M238.75 38.375v44.563h9.313v-13.22c0-3.048 1.952-7.28 7.937-7.28s7.938 4.232 7.938 7.28v13.22h9.312V38.374zm15.813 5h2.875v15.25h-2.875zm-8.25 3h2.906v11.156h-2.906zm16.468 0h2.906v11.156h-2.906zM235.594 31.969v6.343h40.812V31.97zM231.75 24.594v7.375h48.5v-7.375h-6.094v4.062h-6.875v-4.062h-7.844v4.062h-6.875v-4.062h-7.843v4.062h-6.875v-4.062zM222.75 97.844v4.594h66.5v-4.594z"/><path d="M220.031 82.906v14.938h71.938V82.906h-6.813v5.75h-9.062v-5.75h-12.156v5.75h-15.875v-5.75h-12.157v5.75h-9.062v-5.75z"/><path stroke-linejoin="round" d="M228.688 102.438v54.343h12.843v-20.344c0-9.582 6.397-14.093 14.469-14.093 7.759 0 14.469 4.51 14.469 14.094v20.343h12.844v-54.344z"/></g></g></svg>
